theme/assets/images/sponsors/xing.svg

<?xml version="1.0" encoding="UTF-8" standalone="no"?>
<svg
   xmlns:svg="http://www.w3.org/2000/svg"
   xmlns="http://www.w3.org/2000/svg"
   version="1.0"
   width="1024"
   height="405"
   viewBox="0 0 141.68695 56.054741"
   id="svg2268">
  <defs
     id="defs2270" />
  <g
     transform="translate(-194.8708,-324.33481)"
     id="layer1">
    <path
       d="M 112.1875,7.53125 C 111.85625,7.5312501 111.5775,7.6475 111.4375,7.875 C 111.2925,8.1100001 111.315,8.4125 111.46875,8.71875 L 115.1875,15.15625 C 115.19375,15.16875 115.19375,15.17625 115.1875,15.1875 L 109.34375,25.5 C 109.19125,25.803751 109.19875,26.10875 109.34375,26.34375 C 109.48375,26.569999 109.73125,26.71875 110.0625,26.71875 L 115.5625,26.71875 C 116.385,26.71875 116.78125,26.16375 117.0625,25.65625 C 117.0625,25.65625 122.7775,15.54875 123,15.15625 C 122.9775,15.12 119.21875,8.5625 119.21875,8.5625 C 118.945,8.0750002 118.53125,7.53125 117.6875,7.53125 L 112.1875,7.53125 z M 87.96875,19.5625 C 79.433754,19.562501 74.75,24.5425 74.75,33.5625 L 74.75,43.0625 C 74.749997,51.677498 78.85125,56.0625 86.96875,56.0625 C 93.532499,56.062499 98.8475,53.49625 99.21875,53.3125 L 99.21875,36.25 C 99.218749,35.720001 98.8425,35.34375 98.3125,35.34375 L 87.4375,35.34375 C 86.9075,35.343748 86.53125,35.72 86.53125,36.25 L 86.53125,40.625 C 86.53125,41.155 86.9075,41.53125 87.4375,41.53125 L 92.5,41.53125 C 92.521246,41.531249 92.53125,41.54125 92.53125,41.5625 L 92.53125,48.9375 C 92.531248,48.953749 92.51375,48.96375 92.5,48.96875 C 92.476248,48.978749 90.115,49.875 87.1875,49.875 C 83.32,49.875 81.4375,47.475 81.4375,42.5625 L 81.4375,33.5625 C 81.437498,31.008749 81.94,29.13125 82.96875,27.84375 C 84.095,26.435 85.7975,25.75 88.21875,25.75 L 89.28125,25.75 C 92.796248,25.75 95.51125,26.535 97.25,27.09375 C 97.520001,27.18 97.7675,27.135 97.9375,27 C 98.111247,26.8625 98.21875,26.62875 98.21875,26.34375 L 98.21875,22.15625 C 98.218752,21.682501 97.98625,21.41625 97.28125,21.0625 C 96.382502,20.6125 93.82375,19.5625 89.40625,19.5625 L 87.96875,19.5625 z M 1.15625,20.03125 C 0.90375,20.03125 0.70750002,20.12875 0.59375,20.3125 C 0.47,20.51125 0.47124999,20.786249 0.59375,21.03125 L 9.53125,37.3125 C 9.5375,37.32375 9.5375002,37.363751 9.53125,37.375 L 0.09375,54.46875 C -0.03,54.715 -0.029999997,54.98875 0.09375,55.1875 C 0.20625,55.37125 0.40375,55.468751 0.65625,55.46875 L 6.75,55.46875 C 7.4475,55.46875 7.6962501,55.077501 7.96875,54.53125 L 14.21875,43.03125 C 14.225,43.01875 14.23625,43.000001 14.25,43 C 14.265,43 14.275,43.01875 14.28125,43.03125 C 14.28125,43.03125 20.56125,54.53 20.5625,54.53125 C 20.83375,55.07625 21.052501,55.468751 21.75,55.46875 L 27.875,55.46875 C 28.1275,55.46875 28.324999,55.37125 28.4375,55.1875 C 28.5,55.0875 28.531251,54.965001 28.53125,54.84375 C 28.53125,54.72125 28.498749,54.5925 28.4375,54.46875 C 28.43625,54.46625 18.96875,37.375001 18.96875,37.375 C 18.965,37.36875 18.968751,37.35 18.96875,37.34375 C 18.96875,37.3375 18.965,37.317498 18.96875,37.3125 L 27.9375,21.03125 C 27.99875,20.9075 28.031251,20.778751 28.03125,20.65625 C 28.03125,20.535 27.998749,20.41125 27.9375,20.3125 C 27.82375,20.12875 27.626249,20.03125 27.375,20.03125 L 21.25,20.03125 C 20.5525,20.03125 20.30375,20.42375 20.03125,20.96875 L 14.28125,31.65625 C 14.275,31.6675 14.265,31.687501 14.25,31.6875 C 14.23625,31.6875 14.225,31.667499 14.21875,31.65625 C 14.21875,31.65625 8.4700004,20.96875 8.46875,20.96875 C 8.24125,20.51125 8.0012498,20.03125 7.25,20.03125 L 1.15625,20.03125 z M 32.96875,20.03125 C 32.44,20.03125 32.062501,20.40875 32.0625,20.9375 L 32.0625,54.5625 C 32.0625,55.09125 32.439999,55.468749 32.96875,55.46875 L 37.8125,55.46875 C 38.34125,55.46875 38.718751,55.09125 38.71875,54.5625 L 38.71875,20.9375 C 38.71875,20.40875 38.341249,20.03125 37.8125,20.03125 L 32.96875,20.03125 z M 45.90625,20.03125 C 45.3775,20.03125 44.968748,20.40875 44.96875,20.9375 L 44.96875,54.5625 C 44.96875,55.09125 45.3775,55.468749 45.90625,55.46875 L 50.75,55.46875 C 51.27875,55.46875 51.656251,55.09125 51.65625,54.5625 L 51.65625,34.28125 C 51.65625,34.26375 51.67125,34.253749 51.6875,34.25 C 51.70375,34.245 51.711251,34.26625 51.71875,34.28125 C 51.71875,34.28125 62.218748,54.529998 62.21875,54.53125 C 62.435,54.96375 62.771251,55.468749 63.4375,55.46875 L 68.5,55.46875 C 69.02875,55.46875 69.406248,55.09125 69.40625,54.5625 L 69.40625,20.9375 C 69.40625,20.40875 69.028746,20.03125 68.5,20.03125 L 63.65625,20.03125 C 63.1275,20.03125 62.749998,20.40875 62.75,20.9375 L 62.75,41.1875 C 62.75,41.205 62.735,41.215002 62.71875,41.21875 C 62.7025,41.22375 62.664999,41.233751 62.65625,41.21875 C 62.65625,41.21875 52.15625,20.969999 52.15625,20.96875 C 51.92625,20.5125 51.688749,20.03125 50.9375,20.03125 L 45.90625,20.03125 z "
       transform="translate(194.8708,324.33481)"
       style="fill:white;fill-opacity:1;fill-rule:nonzero;stroke:none"
       id="path19359" />
    <path
       d="M 330.16424,324.33481 C 329.34299,324.33481 328.98674,324.85231 328.69174,325.38231 C 328.69174,325.38231 316.84299,346.39481 316.45299,347.08481 C 316.47299,347.12231 324.26799,361.42231 324.26799,361.42231 C 324.54049,361.90981 324.96174,362.46981 325.80424,362.46981 L 331.29799,362.46981 C 331.62924,362.46981 331.88799,362.34481 332.02799,362.11856 C 332.17424,361.88356 332.17049,361.57356 332.01674,361.26856 L 324.26299,347.10231 C 324.25549,347.09106 324.25549,347.07731 324.26299,347.06606 L 336.44049,325.53481 C 336.59299,325.23106 336.59674,324.92106 336.45174,324.68606 C 336.31174,324.45981 336.05174,324.33481 335.72049,324.33481 L 330.16424,324.33481 z "
       style="fill:white;fill-opacity:1;fill-rule:nonzero;stroke:none"
       id="path19375" />
  </g>
</svg>

<svg xmlns="http://www.w3.org/2000/svg" version="1.0" width="1024" height="405" viewBox="0 0 141.687 56.055"><g fill="#fff"><path d="M112.188 7.531c-.332 0-.61.117-.75.344-.145.235-.123.537.03.844l3.72 6.437c.006.013.006.02 0 .031L109.344 25.5c-.153.304-.145.609 0 .844.14.226.387.375.719.375h5.5c.822 0 1.218-.555 1.5-1.063l5.937-10.5c-.022-.036-3.781-6.594-3.781-6.594-.274-.487-.688-1.03-1.531-1.03h-5.5zm-24.22 12.032c-8.534 0-13.218 4.98-13.218 14v9.5c0 8.614 4.101 13 12.219 13 6.563 0 11.879-2.567 12.25-2.75V36.25c0-.53-.376-.906-.906-.906H87.436c-.53 0-.906.376-.906.906v4.375c0 .53.376.906.906.906H92.5c.021 0 .031.01.031.032v7.374c0 .017-.017.027-.031.032-.024.01-2.385.906-5.313.906-3.867 0-5.75-2.4-5.75-7.313v-9c0-2.553.503-4.43 1.532-5.718 1.126-1.409 2.829-2.094 5.25-2.094h1.062c3.515 0 6.23.785 7.969 1.344.27.086.517.041.688-.094.173-.137.28-.371.28-.656v-4.188c0-.473-.232-.74-.937-1.093-.898-.45-3.457-1.5-7.875-1.5H87.97zm-86.812.468c-.252 0-.448.098-.562.282-.124.198-.123.473 0 .718L9.53 37.313a.107.107 0 0 1 0 .062L.094 54.469c-.124.246-.124.52 0 .718.112.184.31.282.562.282H6.75c.697 0 .946-.391 1.219-.938l6.25-11.5c.006-.012.017-.031.031-.031.015 0 .025.019.031.031l6.281 11.5c.272.545.49.938 1.188.938h6.125c.253 0 .45-.098.563-.282a.655.655 0 0 0 .093-.343.853.853 0 0 0-.093-.375l-9.47-17.094c-.003-.006 0-.025 0-.031 0-.007-.003-.027 0-.032l8.97-16.28a.853.853 0 0 0 .093-.376.663.663 0 0 0-.093-.343c-.114-.184-.312-.282-.563-.282H21.25c-.698 0-.946.393-1.219.938l-5.75 10.687c-.006.012-.016.032-.031.032-.014 0-.025-.02-.031-.032L8.469 20.97C8.24 20.51 8 20.03 7.25 20.03H1.156zm31.813 0c-.529 0-.906.378-.907.907v33.624c0 .53.378.907.907.907h4.843c.53 0 .907-.378.907-.907V20.938c0-.53-.378-.907-.907-.907H32.97zm12.937 0c-.529 0-.937.378-.937.907v33.624c0 .53.408.907.937.907h4.844c.529 0 .906-.378.906-.907v-20.28c0-.018.015-.028.032-.032.016-.005.023.016.03.031l10.5 20.25c.217.433.553.938 1.22.938H68.5c.529 0 .906-.378.906-.907V20.938c0-.53-.377-.907-.906-.907h-4.844c-.529 0-.906.378-.906.907v20.25c0 .017-.015.027-.031.03-.017.006-.054.016-.063 0l-10.5-20.25c-.23-.456-.467-.937-1.218-.937h-5.032zM135.293 0c-.82 0-1.177.517-1.472 1.048L121.582 22.75l7.815 14.337c.273.488.694 1.048 1.536 1.048h5.494c.331 0 .59-.125.73-.351.146-.235.143-.545-.011-.85l-7.754-14.167a.032.032 0 0 1 0-.036L141.57 1.2c.152-.304.156-.614.01-.849-.14-.226-.4-.351-.73-.351h-5.557z"/></g></svg>
